assets/metrodelaciudaddemexico/original.svg

<svg viewBox="0 0 24 24" xmlns="http://www.w3.org/2000/svg"><path d="m3.965 8.704v15.296h-3.957v-17.136h2.097c1.066 0 1.86.774 1.86 1.84m2.366-1.84c.268.521.521 1.315.521 1.84v15.296h3.685v-15.296a1.784 1.784 0 0 0 -1.84-1.84m8.703 17.136v-15.296a1.795 1.795 0 0 0 -1.844-1.84h-2.382c.269.521.269 1.315.269 1.84v15.296m-13.435-20.047v-3.953h15.549c4.75 0 8.435 3.953 8.435 8.704v15.296h-3.685v-15.296a4.735 4.735 0 0 0 -4.75-4.75z" fill="#f77e1c"/></svg>

<svg xmlns="http://www.w3.org/2000/svg" viewBox="0 0 24 24"><title>Metro de la Ciudad de México</title><path fill="#f77e1c" d="M3.965 8.704V24H.008V6.864h2.097c1.066 0 1.86.774 1.86 1.84m2.366-1.84c.268.521.521 1.315.521 1.84V24h3.685V8.704a1.784 1.784 0 0 0-1.84-1.84M17.4 24V8.704a1.795 1.795 0 0 0-1.844-1.84h-2.382c.269.521.269 1.315.269 1.84V24M.008 3.953V0h15.549c4.75 0 8.435 3.953 8.435 8.704V24h-3.685V8.704a4.735 4.735 0 0 0-4.75-4.75z"/></svg>
